assets/icons/mp-4.svg

<svg xmlns="http://www.w3.org/2000/svg" viewBox="0 0 48 48" role="presentation" aria-hidden="true"><path fill-rule="evenodd" clip-rule="evenodd" d="M37.5897 13.5643L37.1117 13.0864L30.8452 6.81993L30.8448 6.81956L30.844 6.81931L30.3673 6.34262C30.1507 6.12476 29.8497 6 29.5424 6H11.5288C10.7926 6 10 6.56855 10 7.81614V30.2069V40.4712V40.7586C10 41.2788 10.5232 41.7852 11.1414 41.9441C11.1539 41.9474 11.1661 41.9512 11.1783 41.9551L11.1784 41.9551C11.1964 41.9608 11.2144 41.9665 11.2333 41.9702C11.3308 41.9894 11.4294 42 11.5288 42H36.4023C36.5016 42 36.6003 41.9894 36.6971 41.9702C36.716 41.9665 36.734 41.9608 36.752 41.9551L36.7521 41.9551L36.7522 41.9551L36.7523 41.955C36.7644 41.9512 36.7765 41.9474 36.789 41.9441C37.4078 41.7852 37.931 41.2788 37.931 40.7586V40.4712V30.2069V14.676C37.931 14.2012 37.8739 13.8492 37.5897 13.5643ZM32.3448 19.0345C32.3448 23.4836 28.725 27.1034 24.2759 27.1034C19.8268 27.1034 16.2069 23.4836 16.2069 19.0345C16.2069 14.5854 19.8268 10.9655 24.2759 10.9655C26.0746 10.9655 27.8268 11.5719 29.2414 12.6786V14.069V14.6897H29.8621H31.0712C31.9054 15.9888 32.3448 17.484 32.3448 19.0345ZM31.402 13.4483H30.4828V12.3826V8.21276L35.7183 13.4483H31.402ZM11.4085 40.7292L11.4084 40.7292L11.4059 40.7282C11.309 40.6817 11.2414 40.5848 11.2414 40.4712V31.4483H36.6897V40.4712C36.6897 40.5848 36.622 40.6817 36.5252 40.7282L36.5226 40.7292L36.5225 40.7292C36.4843 40.7438 36.4454 40.7586 36.4023 40.7586H11.5288C11.4857 40.7586 11.4467 40.7438 11.4085 40.7292ZM11.2414 30.2069V7.81614C11.2414 7.68145 11.2619 7.24138 11.5288 7.24138H29.2774C29.2569 7.31959 29.2414 7.40028 29.2414 7.48469V11.1728C27.761 10.2368 26.0399 9.72414 24.2759 9.72414C19.1421 9.72414 14.9655 13.9008 14.9655 19.0345C14.9655 24.1682 19.1421 28.3448 24.2759 28.3448C29.4096 28.3448 33.5862 24.1682 33.5862 19.0345C33.5862 17.5045 33.2094 16.0248 32.5006 14.6897H36.4463C36.5301 14.6897 36.6102 14.6741 36.6884 14.6537C36.6884 14.6578 36.6886 14.6609 36.6887 14.664V14.664C36.6889 14.6674 36.689 14.6709 36.689 14.676V30.2069H11.2414ZM18.6401 37.5398L16.7818 33.2633H15.7464V39.5173H16.7818V35.2147L18.1901 38.6943H19.0901L20.4898 35.2147V39.5173H21.5251V33.2633H20.4898L18.6401 37.5398ZM25.6664 33.3905C25.9265 33.4749 26.1598 33.6028 26.3665 33.7722C26.5732 33.9423 26.7402 34.1465 26.8674 34.3873C26.9947 34.6282 27.0586 34.8982 27.0586 35.198C27.0586 35.5151 27.0046 35.8019 26.8972 36.0595C26.7892 36.3171 26.6396 36.5337 26.4472 36.7087C26.2548 36.8838 26.0227 37.0197 25.7514 37.1159C25.4802 37.2121 25.1798 37.2599 24.8521 37.2599H24.0967V39.5173H23.0781V33.2633H24.8775C25.1432 33.2633 25.4063 33.3055 25.6664 33.3905ZM25.7347 36.2413C25.8365 36.1451 25.9178 36.0111 25.9805 35.8385C26.0425 35.666 26.0736 35.4524 26.0736 35.1973C26.0736 35.0956 26.0593 34.9782 26.0314 34.8454C26.0028 34.7126 25.9451 34.5853 25.8576 34.4637C25.7694 34.342 25.6465 34.2402 25.4883 34.1583C25.3294 34.0764 25.1202 34.0354 24.8601 34.0354H24.0967V36.5132H25.0302C25.1543 36.5132 25.2778 36.4915 25.3995 36.4493C25.5212 36.4071 25.6329 36.3375 25.7347 36.2413ZM31.504 33.2633H30.4687L27.7619 37.2518V38.0581H30.4687V39.5173H31.504V38.0575H32.1576V37.2518H31.504V33.2633ZM30.4687 37.2518H28.67L30.4687 34.4513V37.2518ZM22.1265 14.1659L28.9541 18.5107C29.1328 18.6249 29.2415 18.8223 29.2415 19.0345C29.2415 19.2468 29.1328 19.4442 28.9541 19.5584L22.1265 23.9032C22.0253 23.9672 21.9093 24.0001 21.7932 24.0001C21.6902 24.0001 21.5877 23.9746 21.4946 23.9237C21.296 23.8145 21.1725 23.6059 21.1725 23.3794V14.6897C21.1725 14.4632 21.296 14.2546 21.494 14.1454C21.6933 14.0367 21.9353 14.0448 22.1265 14.1659ZM22.4139 15.82V22.2491L27.4644 19.0345L22.4139 15.82Z" fill="currentColor"/></svg>

<svg xmlns="http://www.w3.org/2000/svg" aria-hidden="true" viewBox="0 0 48 48"><path fill="currentColor" fill-rule="evenodd" d="m37.59 13.564-.478-.478-6.267-6.266h-.001l-.477-.477A1.17 1.17 0 0 0 29.542 6H11.53C10.793 6 10 6.569 10 7.816V40.76c0 .52.523 1.026 1.141 1.185l.037.011q.027.01.055.015.147.03.296.03h24.873q.15 0 .295-.03.028-.006.055-.015.018-.007.037-.01c.619-.16 1.142-.666 1.142-1.186V14.676c0-.475-.057-.827-.341-1.112m-5.245 5.47c0 4.45-3.62 8.07-8.07 8.07-4.448 0-8.068-3.62-8.068-8.07 0-4.449 3.62-8.068 8.069-8.068a8.07 8.07 0 0 1 4.965 1.713v2.01h1.831a8 8 0 0 1 1.273 4.346m-.943-5.586h-.92V8.213l5.236 5.235zM11.409 40.73h-.003a.29.29 0 0 1-.165-.258v-9.023H36.69v9.023c0 .114-.068.21-.165.257l-.002.001a.3.3 0 0 1-.12.03H11.528a.3.3 0 0 1-.12-.03m-.168-10.522V7.817c0-.136.02-.576.288-.576h17.748a1 1 0 0 0-.036.244v3.688a9.3 9.3 0 0 0-4.965-1.449c-5.134 0-9.31 4.177-9.31 9.31s4.176 9.31 9.31 9.31 9.31-4.176 9.31-9.31c0-1.53-.377-3.01-1.085-4.344h3.945a1 1 0 0 0 .242-.036v.01l.001.012v15.53zm7.4 7.333-1.86-4.277h-1.035v6.254h1.036v-4.302l1.408 3.48h.9l1.4-3.48v4.302h1.035v-6.254H20.49zm7.025-4.15q.39.128.7.382.31.255.501.615.192.361.192.811 0 .476-.162.861a1.8 1.8 0 0 1-.45.65 2 2 0 0 1-.696.407 2.7 2.7 0 0 1-.899.144h-.755v2.257h-1.019v-6.254h1.8q.398 0 .788.128m.069 2.851q.152-.144.245-.402a1.9 1.9 0 0 0 .051-.994 1 1 0 0 0-.173-.381 1 1 0 0 0-.37-.306q-.238-.123-.628-.123h-.763v2.478h.933q.187 0 .37-.064a.9.9 0 0 0 .335-.208m5.769-2.978h-1.035l-2.707 3.989v.806h2.707v1.46h1.035v-1.46h.654v-.806h-.654zm-1.035 3.989H28.67l1.799-2.8zm-8.343-23.086 6.828 4.345a.622.622 0 0 1 0 1.047l-6.828 4.345a.62.62 0 0 1-.631.02.62.62 0 0 1-.323-.544v-8.69a.622.622 0 0 1 .954-.523m.288 1.654v6.43l5.05-3.215z" clip-rule="evenodd"/></svg>
